austria/municipalities/70206.svg

<?xml version="1.0" encoding="UTF-8"?>
<!DOCTYPE svg PUBLIC "-//W3C//DTD SVG 1.1//EN" "http://www.w3.org/Graphics/SVG/1.1/DTD/svg11.dtd">
<svg xmlns="http://www.w3.org/2000/svg" version="1.1" width="166px" height="192px" style="shape-rendering:geometricPrecision; text-rendering:geometricPrecision; image-rendering:optimizeQuality; fill-rule:evenodd; clip-rule:evenodd" xmlns:xlink="http://www.w3.org/1999/xlink">
<g><path style="opacity:1" fill="#040405" d="M -0.5,-0.5 C 54.8333,-0.5 110.167,-0.5 165.5,-0.5C 165.5,39.8333 165.5,80.1667 165.5,120.5C 156.716,159.618 132.716,183.285 93.5,191.5C 86.1667,191.5 78.8333,191.5 71.5,191.5C 31.3845,183.051 7.38454,158.718 -0.5,118.5C -0.5,78.8333 -0.5,39.1667 -0.5,-0.5 Z"/></g>
<g><path style="opacity:1" fill="#253167" d="M 80.5,7.5 C 59.1685,51.5011 38.3352,95.8345 18,140.5C 16.9741,143.239 15.4741,145.572 13.5,147.5C 8.42787,137.781 5.2612,127.448 4,116.5C 3.50001,78.8348 3.33335,41.1681 3.5,3.5C 29.5085,3.16689 55.5085,3.50022 81.5,4.5C 80.8728,5.41683 80.5394,6.41683 80.5,7.5 Z"/></g>
<g><path style="opacity:1" fill="#253167" d="M 83.5,4.5 C 109.328,3.5022 135.328,3.16887 161.5,3.5C 161.667,41.8348 161.5,80.1681 161,118.5C 159.667,129.166 156.333,139.166 151,148.5C 128.725,100.289 106.225,52.2887 83.5,4.5 Z"/></g>
<g><path style="opacity:1" fill="#fdfdfd" d="M 82.5,124.5 C 78.1686,120.337 73.6686,116.337 69,112.5C 68.3333,111.5 68.3333,110.5 69,109.5C 73.059,105.944 76.559,101.944 79.5,97.5C 75.5071,93.6762 71.3404,90.0095 67,86.5C 63.3679,91.1337 59.3679,95.467 55,99.5C 54.2613,98.4258 53.2613,97.7591 52,97.5C 50.0561,98.4394 48.3894,99.7727 47,101.5C 48.4815,103.068 49.1482,105.068 49,107.5C 44.941,111.056 41.441,115.056 38.5,119.5C 41.8744,123.876 45.8744,127.542 50.5,130.5C 54.4792,126.02 58.6459,121.687 63,117.5C 67.6627,121.33 72.1627,125.33 76.5,129.5C 67.844,137.988 59.0106,146.322 50,154.5C 50.4007,157.101 51.9007,159.101 54.5,160.5C 63.8163,152.351 72.9829,144.018 82,135.5C 82.4999,152.83 82.6666,170.163 82.5,187.5C 53.582,186.878 31.2487,174.545 15.5,150.5C 36.7244,102.502 58.7244,54.8351 81.5,7.5C 82.4995,45.7607 82.8328,84.7607 82.5,124.5 Z"/></g>
<g><path style="opacity:1" fill="#19191d" d="M 80.5,7.5 C 80.8333,7.5 81.1667,7.5 81.5,7.5C 58.7244,54.8351 36.7244,102.502 15.5,150.5C 14.5987,149.71 13.9321,148.71 13.5,147.5C 15.4741,145.572 16.9741,143.239 18,140.5C 38.3352,95.8345 59.1685,51.5011 80.5,7.5 Z"/></g>
<g><path style="opacity:1" fill="#fafaf9" d="M 82.5,124.5 C 87.801,120.534 92.801,116.2 97.5,111.5C 93.8333,106.833 90.1667,102.167 86.5,97.5C 89.6001,94.1114 92.9334,90.9447 96.5,88C 97.5,87.3333 98.5,87.3333 99.5,88C 103,92.1667 106.5,96.3333 110,100.5C 112.333,96.5 114.667,96.5 117,100.5C 117.63,102.903 116.797,104.737 114.5,106C 118.522,108.67 120.855,112.337 121.5,117C 120.814,123.483 120.314,129.983 120,136.5C 114.297,129.8 108.297,123.466 102,117.5C 96.8195,120.683 92.3195,124.683 88.5,129.5C 97.3226,138.155 106.323,146.655 115.5,155C 114.378,157.124 112.878,158.957 111,160.5C 101.667,151.833 92.3333,143.167 83,134.5C 82.5017,131.183 82.335,127.85 82.5,124.5 Z"/></g>
<g><path style="opacity:1" fill="#fdfdfd" d="M -0.5,118.5 C 7.38454,158.718 31.3845,183.051 71.5,191.5C 47.5,191.5 23.5,191.5 -0.5,191.5C -0.5,167.167 -0.5,142.833 -0.5,118.5 Z"/></g>
<g><path style="opacity:1" fill="#fdfdfd" d="M 165.5,120.5 C 165.5,144.167 165.5,167.833 165.5,191.5C 141.5,191.5 117.5,191.5 93.5,191.5C 132.716,183.285 156.716,159.618 165.5,120.5 Z"/></g>
</svg>

<svg xmlns="http://www.w3.org/2000/svg" width="166" height="192" style="shape-rendering:geometricPrecision;text-rendering:geometricPrecision;image-rendering:optimizeQuality;fill-rule:evenodd;clip-rule:evenodd"><path style="opacity:1" fill="#040405" d="M-.5-.5h166v121c-8.784 39.118-32.784 62.785-72 71h-22c-40.115-8.449-64.115-32.782-72-73V-.5z"/><path style="opacity:1" fill="#253167" d="M80.5 7.5a6078.554 6078.554 0 0 0-62.5 133c-1.026 2.739-2.526 5.072-4.5 7-5.072-9.719-8.239-20.052-9.5-31-.5-37.665-.667-75.332-.5-113 26.009-.333 52.008 0 78 1a5.577 5.577 0 0 0-1 3zM83.5 4.5a1521.602 1521.602 0 0 1 78-1c.167 38.335 0 76.668-.5 115-1.333 10.666-4.667 20.666-10 30a14370.002 14370.002 0 0 0-67.5-144z"/><path style="opacity:1" fill="#fdfdfd" d="M82.5 124.5a232.619 232.619 0 0 0-13.5-12c-.667-1-.667-2 0-3a59.693 59.693 0 0 0 10.5-12 198.61 198.61 0 0 0-12.5-11 110.22 110.22 0 0 1-12 13c-.739-1.074-1.739-1.74-3-2-1.944.94-3.61 2.273-5 4 1.481 1.568 2.148 3.568 2 6a59.693 59.693 0 0 0-10.5 12 47.073 47.073 0 0 0 12 11c3.98-4.48 8.146-8.813 12.5-13 4.663 3.83 9.163 7.83 13.5 12a943.757 943.757 0 0 1-26.5 25c.4 2.601 1.9 4.601 4.5 6a970.814 970.814 0 0 0 27.5-25c.5 17.33.667 34.663.5 52-28.918-.622-51.251-12.955-67-37a4903.788 4903.788 0 0 1 66-143c1 38.26 1.333 77.26 1 117z"/><path style="opacity:1" fill="#19191d" d="M80.5 7.5h1a4903.788 4903.788 0 0 0-66 143c-.901-.79-1.568-1.79-2-3 1.974-1.928 3.474-4.261 4.5-7a6078.554 6078.554 0 0 1 62.5-133z"/><path style="opacity:1" fill="#fafaf9" d="M82.5 124.5a138.577 138.577 0 0 0 15-13l-11-14a98.727 98.727 0 0 1 10-9.5c1-.667 2-.667 3 0l10.5 12.5c2.333-4 4.667-4 7 0 .63 2.403-.203 4.237-2.5 5.5 4.022 2.67 6.355 6.337 7 11a341.425 341.425 0 0 0-1.5 19.5 244.113 244.113 0 0 0-18-19c-5.18 3.183-9.68 7.183-13.5 12a980.964 980.964 0 0 0 27 25.5 17.842 17.842 0 0 1-4.5 5.5l-28-26a50.442 50.442 0 0 1-.5-10z"/><path style="opacity:1" fill="#fdfdfd" d="M-.5 118.5c7.885 40.218 31.884 64.551 72 73h-72v-73zM165.5 120.5v71h-72c39.216-8.215 63.216-31.882 72-71z"/></svg>
